icons/op-view-card-24.svg

<svg width="24" height="24" viewBox="0 0 24 24" fill="none" xmlns="http://www.w3.org/2000/svg">
<path d="M11.4666 5V8.99996H4V5H11.4666Z" fill="black"/>
<path d="M11.4666 9.99989V14.0001H4V9.99989H11.4666Z" fill="black"/>
<path d="M20 14.0001V9.99989H12.5334V14.0001H20Z" fill="black"/>
<path d="M11.4666 15V19H4V15H11.4666Z" fill="black"/>
<path d="M20 8.99996V5H12.5334V8.99996H20Z" fill="black"/>
</svg>

<svg xmlns="http://www.w3.org/2000/svg" width="24" height="24" viewBox="0 0 24 24"><path d="M11.467 5v4H4V5h7.467Zm0 5v4H4v-4h7.467ZM20 14v-4h-7.467v4H20Zm-8.533 1v4H4v-4h7.467ZM20 9V5h-7.467v4H20Z"/></svg>
